icon-themes/sifr_svg/cmd/de/sc_numberformatdecimal.svg

<svg viewBox="0 0 16 16" xmlns="http://www.w3.org/2000/svg"><path d="m2 2c-1.1045695 0-2 .8954305-2 2v7c0 1.104569.8954305 2 2 2h2c1.1045695 0 2-.895431 2-2v-7c0-1.1045695-.8954305-2-2-2zm10 0c-1.104569 0-2 .8954305-2 2v7c0 1.104569.895431 2 2 2h2c1.104569 0 2-.895431 2-2v-7c0-1.1045695-.895431-2-2-2zm-10 2h2v7h-2zm10 0h2v7h-2zm-5 7v2h1c0 .366595-.1581924.872288-.34375 1.244141-.1855575.371853-.65625.755859-.65625.755859h1c.6036951-.571623 1.0009104-1 1.0039062-2h-.0039062v-2z" fill="#555753"/></svg>

<svg xmlns="http://www.w3.org/2000/svg" viewBox="0 0 16 16">
  <path
     style="fill:#555753"
     d="M 2 2 C 0.8954305 2 0 2.8954305 0 4 L 0 11 C 0 12.104569 0.8954305 13 2 13 L 4 13 C 5.1045695 13 6 12.104569 6 11 L 6 4 C 6 2.8954305 5.1045695 2 4 2 L 2 2 z M 12 2 C 10.895431 2 10 2.8954305 10 4 L 10 11 C 10 12.104569 10.895431 13 12 13 L 14 13 C 15.104569 13 16 12.104569 16 11 L 16 4 C 16 2.8954305 15.104569 2 14 2 L 12 2 z M 2 4 L 4 4 L 4 11 L 2 11 L 2 4 z M 12 4 L 14 4 L 14 11 L 12 11 L 12 4 z M 7 11 L 7 13 L 8 13 C 8 13.366595 7.8418076 13.872288 7.65625 14.244141 C 7.4706925 14.615994 7 15 7 15 L 8 15 C 8.6036951 14.428377 9.0009104 14 9.0039062 13 L 9 13 L 9 11 L 7 11 z "
     />
</svg>
